layouts/icon-pack/spell_eagleeye.svg

<?xml version="1.0" encoding="UTF-8"?>
<svg width="1200pt" height="1200pt" version="1.1" viewBox="0 0 1200 1200" xmlns="http://www.w3.org/2000/svg">
 <g fill="#fff">
  <path d="m971.06 314.41 73.195-71.133c3.7266-3.6289 9.1914-4.8281 14.098-3.0977 4.9062 1.7305 8.4062 6.0898 9.0352 11.254 8.3438 67.664 20.414 248.55-66.773 367.83-11.32 15.469-35.742 5.4141-32.812-13.523 9.6797-63.281 18.188-165.35-6.1641-257.27-1.5977-6-1.5664-12.32 0.089844-18.305 1.6562-5.9883 4.8789-11.422 9.332-15.75z"/>
  <path d="m1095.8 82.852c-505.55 261.98-899.18 826.92-1009.9 1010-9.375 15.586 8.8828 33.094 24.047 23.039l77.203-51.234c21.578-14.344 45.922-24.008 71.461-28.371s51.711-3.332 76.828 3.0352c409.88 104.41 549.63-154.85 593.34-286.71 5.7891-17.461-15.82-30.469-28.781-17.367-190.08 191.25-404.27 165.63-476.55 140.95-6.082-2.0625-10.723-7.0391-12.355-13.254-1.6328-6.2109-0.039063-12.828 4.2461-17.613 32.812-36.75 67.594-74.859 100.97-111.77 6.9648-7.6992 16.332-12.816 26.574-14.516 10.242-1.7031 20.758 0.10937 29.84 5.1406 7.5977 4.1953 15.484 7.8477 23.602 10.922 4.4062 1.6523 9.2383 1.7812 13.727 0.375 4.4883-1.4102 8.375-4.2812 11.047-8.1562l59.391-86.297c2.168-3.1641 6.0859-4.6289 9.8008-3.668 3.7109 0.95703 6.4258 4.1406 6.793 7.957l7.5938 78.984c0.41016 4.332 2.7852 8.2383 6.4414 10.594 3.6562 2.3594 8.1914 2.9141 12.309 1.5 36.375-12.941 67.77-36.969 89.773-68.691 22-31.727 33.496-69.555 32.867-108.16-0.625-38.602-13.348-76.035-36.367-107.03-4.5703-6.2227-6.8164-13.852-6.3438-21.559 0.46875-7.7109 3.6289-15.008 8.9219-20.629 97.102-102.98 196.69-204.82 300.33-304.88 11.156-11.719-2.5312-30.047-16.852-22.617zm-344.53 482.13c-3.6094 12.391-13.195 22.148-25.523 25.969-3.5312 1.0781-7.1719 1.7539-10.852 2.0156-4.1484 0.31641-8.1758-1.4961-10.688-4.8125-2.5117-3.3203-3.1641-7.6875-1.7344-11.594 5.8398-15.922 14.203-30.801 24.773-44.062 3.1094-3.7695 8.0078-5.5703 12.816-4.7148 4.8125 0.85547 8.7891 4.2305 10.41 8.8398 3.2305 9.1406 3.4688 19.074 0.67969 28.359z"/>
 </g>
</svg>

<?xml version="1.0" encoding="UTF-8" standalone="no"?>
<!DOCTYPE svg PUBLIC "-//W3C//DTD SVG 1.1//EN" "http://www.w3.org/Graphics/SVG/1.1/DTD/svg11.dtd">
<svg width="100%" height="100%" viewBox="0 0 510 512" version="1.1" xmlns="http://www.w3.org/2000/svg" xmlns:xlink="http://www.w3.org/1999/xlink" xml:space="preserve" xmlns:serif="http://www.serif.com/" style="fill-rule:evenodd;clip-rule:evenodd;stroke-linejoin:round;stroke-miterlimit:2;">
    <g transform="matrix(1,0,0,1,-83.3381,-81.1058)">
        <g transform="matrix(0.493376,0,0,0.493376,42.2211,41.0902)">
            <path d="M971.06,314.41L1044.26,243.277C1047.98,239.648 1053.45,238.449 1058.35,240.179C1063.26,241.91 1066.76,246.269 1067.39,251.433C1075.73,319.097 1087.8,499.983 1000.62,619.263C989.295,634.732 964.873,624.677 967.803,605.74C977.483,542.459 985.991,440.39 961.639,348.47C960.041,342.47 960.073,336.15 961.729,330.165C963.385,324.177 966.608,318.743 971.061,314.415L971.06,314.41Z" style="fill:white;fill-rule:nonzero;"/>
            <path d="M1095.8,82.852C590.25,344.832 196.62,909.772 85.9,1092.85C76.525,1108.44 94.783,1125.95 109.947,1115.89L187.15,1064.66C208.728,1050.31 233.072,1040.65 258.611,1036.29C284.15,1031.92 310.322,1032.95 335.439,1039.32C745.319,1143.73 885.069,884.471 928.779,752.611C934.568,735.15 912.959,722.142 899.998,735.244C709.918,926.494 495.728,900.874 423.448,876.194C417.366,874.132 412.725,869.155 411.093,862.94C409.46,856.729 411.054,850.112 415.339,845.327C448.151,808.577 482.933,770.468 516.309,733.557C523.274,725.858 532.641,720.741 542.883,719.041C553.125,717.338 563.641,719.151 572.723,724.182C580.321,728.377 588.207,732.03 596.325,735.104C600.731,736.756 605.563,736.885 610.052,735.479C614.54,734.069 618.427,731.198 621.099,727.323L680.49,641.026C682.658,637.862 686.576,636.397 690.291,637.358C694.002,638.315 696.717,641.498 697.084,645.315L704.678,724.299C705.088,728.631 707.463,732.537 711.119,734.893C714.775,737.252 719.311,737.807 723.428,736.393C759.803,723.452 791.198,699.424 813.201,667.702C835.201,635.975 846.697,598.147 846.068,559.542C845.443,520.94 832.72,483.507 809.701,452.512C805.131,446.289 802.885,438.66 803.357,430.953C803.826,423.242 806.986,415.945 812.279,410.324C909.381,307.344 1008.97,205.504 1112.61,105.444C1123.77,93.725 1110.08,75.397 1095.76,82.827L1095.8,82.852ZM751.27,564.982C747.661,577.373 738.075,587.13 725.747,590.951C722.216,592.029 718.575,592.705 714.895,592.967C710.747,593.283 706.719,591.471 704.207,588.154C701.695,584.834 701.043,580.467 702.473,576.56C708.312,560.638 716.676,545.759 727.246,532.498C730.355,528.729 735.253,526.928 740.062,527.783C744.874,528.639 748.851,532.014 750.472,536.623C753.702,545.764 753.94,555.697 751.151,564.982L751.27,564.982Z" style="fill:white;fill-rule:nonzero;"/>
        </g>
    </g>
</svg>
